X:1
T:11. Saknad
T:11. Saknad
T:Symra
T:Chr. Haslerud
T:Ivar Aasen
C:Chr. Haslerud
Z:Ivar Aasen
%%score [ 1 2 3 4 ]
L:1/8
Q:1/4=72
M:4/4
K:Ab
V:1 treble nm="Soprano"
V:2 treble nm="Alto"
V:3 treble-8 nm="Tenor"
V:4 bass nm="Bass"
V:1
"^Vemodigt"!pp! (c>B) | A2 G2 F2 (f>=e) | f2 d2 c2 (c>B) | A2 G2 F2 A2 | G4 C z (c>B) | %5
w: Eg _|veit so vel, det _|finst ein Skatt, som _|vel eg ha- va|maat- te; og _|
 A2 G2!<(! F2 G2!<)! | A2 B2 c2!mf! (e>d) | c2 B2 A2 c2 | B4 A z!p! (B>A) | G2 F2 E2 (FG) | %10
w: in- gen Mann det|vil- de skadt, um _|eg den Skat- ten|aat- te. Og _|fann eg den, var _|
 A2 c2 B2 z B |!<(! c3 c!<)! d2 f2 | e2 d2 !fermata!c2 z!pp! C | F2 G2 A2 B2 | %14
w: al- ting vel; eg|skul- de ve- ra|rik og sæl. Men|al- dri veit eg|
!<(! (c2 d2) c!<)! z!mf! (c>B) | A2 G2 F2 A2 | G4 F2 |] %17
w: Grun- * nen, der _|han skal ver- da|fun- nen.|
V:2
!pp! (F>=E) | F2 =E2 F2 B2 | A2 G2 A2 (F>=E) | F2 =E2 F2 F2 | =E4 C z (F>E) | %5
w: Eg _|veit so vel, det|finst ein Skatt, som _|vel eg ha- va|maat- te; og _|
 F2 C2!<(! C2 _E2!<)! | E2 D2 C2!mf! F2 | E2 D2 C2 A2 | G4 E z!p! E2 | E2 D2 D2 D2 | E2 E2 E2 z E | %11
w: in- gen Mann det|vil- de skadt, um|eg den Skat- ten|aat- te. Og|fann eg den, var|al- ting vel; eg|
!<(! E3 E!<)! A2 A2 | A2 G2 !fermata!=E2 z!pp! C | C2 =E2 F2 F2 |!<(! F4 =E!<)! z!mf! (F>E) | %15
w: skul- de ve- ra|rik og sæl. Men|al- dri veit eg|Grun- nen, der _|
 F2 =E2 F2 F2 | =E4 C2 |] %17
w: han skal ver- da|fun- nen.|
V:3
!pp! (A>B) | c2 c2 c2 c2 | c2 B2 A2 c2 | c2 c2 c2 c2 | c4 c z c2 | c2 B2!<(! A2 B2!<)! | %6
w: Eg _|veit so vel, det|finst ein Skatt, som|vel eg ha- va|maat- te; og|in- gen Mann det|
 E2 G2 A2!mf! A2 | G2 G2 A2 e2 | d4 c z!p! (G>c) | B2 A2 G2 (AB) | A2 A2 G2 z G | %11
w: vil- de skadt, um|eg den Skat- ten|aat- te. Og _|fann eg den, var _|al- ting vel; eg|
!<(! A3 A!<)! A2 d2 | c2 B2 !fermata!G2 z!pp! c | c2 B2 A2 F2 |!<(! A4 G!<)! z!mf! c2 | %15
w: skul- de ve- ra|rik og sæl. Men|al- dri veit eg|Grun- nen, der|
 c2 c2 A2 c2 | B4 A2 |] %17
w: han skal ver- da|fun- nen.|
V:4
!pp! (F,>G,) | A,2 B,2 A,2 G,2 | F,2 =E,2 F,2 (A,>G,) | F,2 C,2 A,,2 F,,2 | C,4 C, z (A,>G,) | %5
w: Eg _|veit so vel, det|finst ein Skatt, som _|vel eg ha- va|maat- te; og _|
 F,2 =E,2!<(! F,2 D,2!<)! | C,2 B,,2 A,,2!mf! D,2 | E,2 E,2 F,2 (C,D,) | E,4 A,, z!p! E,2 | %9
w: in- gen Mann det|vil- de skadt, um|eg den Skat- ten _|aat- te. Og|
 E,2 E,2 E,2 D,2 | C,2 A,,2 E,2 z E, |!<(! A,,3 A,!<)! F,2 D,2 | A,,2 B,,2 !fermata!C,2 z!pp! C | %13
w: fann eg den, var|al- ting vel; eg|skul- de ve- ra|rik og sæl. Men|
 A,2 G,2 F,2 D,2 |!<(! (C,2 B,,2) C,!<)! z!mf! (A,>G,) | F,2 C,2 D,2 (A,,B,,) | C,4 F,2 |] %17
w: al- dri veit eg|Grun- * nen, der _|han skal ver- da _|fun- nen.|

